src/cart/components/img/Master.svg

<svg height="43" viewBox="0 0 66 43" width="66" xmlns="http://www.w3.org/2000/svg"><g fill="none" fill-rule="evenodd"><path d="m4 0h58c2.209139 0 4 1.790861 4 4v35c0 2.209139-1.790861 4-4 4h-58c-2.209139 0-4-1.790861-4-4v-35c0-2.209139 1.790861-4 4-4z" fill="#fff"/><g transform="translate(12.352941 10)"><path d="m26.9042695.18982727c-2.951514 0-5.6633867.95709091-7.8103423 2.55595455 2.9112353 2.16809091 4.7813173 5.51822727 4.7813173 9.28104548 0 3.7625-1.870082 7.1129545-4.7813173 9.2810454 2.1469556 1.5985455 4.8588283 2.5556364 7.8103423 2.5556364 6.9543356 0 12.5919981-5.2993182 12.5919981-11.8366818 0-6.53736366-5.6376625-11.83700003-12.5919981-11.83700003" fill="#f59f00"/><path d="m16.2680143 12.0267318c0-3.76281816 1.8697435-7.11295453 4.7813172-9.28104544-2.1466171-1.59854545-4.8588283-2.55595454-7.8103423-2.55595454-6.95433558 0-12.59199807 5.29963636-12.59199807 11.83699998 0 6.5373637 5.63766249 11.837 12.59199807 11.837 2.951514 0 5.6637252-.9574091 7.8103423-2.5559545-2.9115737-2.1680909-4.7813172-5.5182273-4.7813172-9.2810455" fill="#e30e17"/><path d="m15.4940484 12.0681818c0 4.0266613 1.8448993 7.6117041 4.7177855 9.9318182 2.8728862-2.3201141 4.7177855-5.9051569 4.7177855-9.9318182 0-4.02666123-1.8448993-7.61170403-4.7177855-9.93181816-2.8728862 2.32011413-4.7177855 5.90515693-4.7177855 9.93181816" fill="#ea600a"/></g></g></svg>

<?xml version="1.0" encoding="UTF-8"?>
<svg width="66px" height="43px" viewBox="0 0 42 43" version="1.1" xmlns="http://www.w3.org/2000/svg" xmlns:xlink="http://www.w3.org/1999/xlink">
    <!-- Generator: Sketch 48.2 (47327) - http://www.bohemiancoding.com/sketch -->
    <title>Master</title>
    <desc>Created with Sketch.</desc>
    <defs></defs>
    <g id="5-Select-coupon-Copy" stroke="none" stroke-width="1" fill="none" fill-rule="evenodd" transform="translate(-24.000000, -682.000000)">
        <g id="Payment-menthod" transform="translate(16.000000, 340.000000)">
            <g id="Master" transform="translate(8.000000, 342.000000)">
                <path d="M4,0 L62,0 C64.209139,-4.05812251e-16 66,1.790861 66,4 L66,39 C66,41.209139 64.209139,43 62,43 L4,43 C1.790861,43 2.705415e-16,41.209139 0,39 L0,4 C-2.705415e-16,1.790861 1.790861,4.05812251e-16 4,0 Z" id="Mask-Copy-3" fill="#FFFFFF"></path>
                <g id="Page-1" transform="translate(12.000000, 10.000000)">
                    <g id="Group-3" transform="translate(1.000000, 0.000000)"></g>
                    <g id="Group-8" transform="translate(0.352941, 0.000000)">
                        <path d="M26.9042695,0.189827273 C23.9527555,0.189827273 21.2408828,1.14691818 19.0939272,2.74578182 C22.0051625,4.91387273 23.8752445,8.26400909 23.8752445,12.0268273 C23.8752445,15.7893273 22.0051625,19.1397818 19.0939272,21.3078727 C21.2408828,22.9064182 23.9527555,23.8635091 26.9042695,23.8635091 C33.8586051,23.8635091 39.4962676,18.5641909 39.4962676,12.0268273 C39.4962676,5.48946364 33.8586051,0.189827273 26.9042695,0.189827273" id="Fill-6" fill="#F59F00"></path>
                        <path d="M16.2680143,12.0267318 C16.2680143,8.26391364 18.1377578,4.91377727 21.0493315,2.74568636 C18.9027144,1.14714091 16.1905032,0.189731818 13.2389892,0.189731818 C6.28465362,0.189731818 0.646991128,5.48936818 0.646991128,12.0267318 C0.646991128,18.5640955 6.28465362,23.8637318 13.2389892,23.8637318 C16.1905032,23.8637318 18.9027144,22.9063227 21.0493315,21.3077773 C18.1377578,19.1396864 16.2680143,15.78955 16.2680143,12.0267318" id="Fill-1" fill="#E30E17"></path>
                        <path d="M15.4940484,12.0681818 C15.4940484,16.0948431 17.3389477,19.6798859 20.2118339,22 C23.0847201,19.6798859 24.9296194,16.0948431 24.9296194,12.0681818 C24.9296194,8.04152057 23.0847201,4.45647777 20.2118339,2.13636364 C17.3389477,4.45647777 15.4940484,8.04152057 15.4940484,12.0681818" id="Fill-4" fill="#EA600A"></path>
                    </g>
                </g>
            </g>
        </g>
    </g>
</svg>
